report_00007_2020-12-11T15:55:29.892Z/uses-long-cache-ttl/samples/pages/raw/values.svg

<svg width="640" height="490" xmlns="http://www.w3.org/2000/svg" xmlns:xlink="http://www.w3.org/1999/xlink"><path fill="#fff" d="M0 0h640v490H0z"/><defs><path id="d" stroke-width=".222" stroke="currentColor" d="M-1-1h2v2h-2z"/><path id="b" stroke-width=".222" stroke="currentColor" d="M0-1.33l-1.33 2h2.66z"/><path id="f" stroke-width=".222" stroke="currentColor" d="M0 1.33L1.265.411.782-1.067l-1.564-.009-.483 1.487z"/><use xlink:href="#b" id="c" stroke="currentColor" transform="rotate(180)"/><use xlink:href="#d" id="e" stroke="currentColor" transform="rotate(45)"/><circle id="a" stroke-width=".222" stroke="currentColor" cx="0" cy="0" r="1"/></defs><g fill="none" color="#000" stroke="currentColor"><path stroke="#000" d="M78.8 401.5h9m527.2 0h-9"/><text transform="translate(70.5 405.4)" stroke="none" fill="#000" font-family="Arial" font-size="12" text-anchor="end"><tspan>558200</tspan></text></g><g fill="none" color="#000" stroke="currentColor"><path stroke="#000" d="M78.8 359.6h9m527.2 0h-9"/><text transform="translate(70.5 363.5)" stroke="none" fill="#000" font-family="Arial" font-size="12" text-anchor="end"><tspan>558400</tspan></text></g><g fill="none" color="#000" stroke="currentColor"><path stroke="#000" d="M78.8 317.8h9m527.2 0h-9"/><text transform="translate(70.5 321.7)" stroke="none" fill="#000" font-family="Arial" font-size="12" text-anchor="end"><tspan>558600</tspan></text></g><g fill="none" color="#000" stroke="currentColor"><path stroke="#000" d="M78.8 275.9h9m527.2 0h-9"/><text transform="translate(70.5 279.8)" stroke="none" fill="#000" font-family="Arial" font-size="12" text-anchor="end"><tspan>558800</tspan></text></g><g fill="none" color="#000" stroke="currentColor"><path stroke="#000" d="M78.8 234.1h9m527.2 0h-9"/><text transform="translate(70.5 238)" stroke="none" fill="#000" font-family="Arial" font-size="12" text-anchor="end"><tspan>559000</tspan></text></g><g fill="none" color="#000" stroke="currentColor"><path stroke="#000" d="M78.8 192.2h9m527.2 0h-9"/><text transform="translate(70.5 196.1)" stroke="none" fill="#000" font-family="Arial" font-size="12" text-anchor="end"><tspan>559200</tspan></text></g><g fill="none" color="#000" stroke="currentColor"><path stroke="#000" d="M78.8 150.3h9m527.2 0h-9"/><text transform="translate(70.5 154.2)" stroke="none" fill="#000" font-family="Arial" font-size="12" text-anchor="end"><tspan>559400</tspan></text></g><g fill="none" color="#000" stroke="currentColor"><path stroke="#000" d="M78.8 108.5h9m527.2 0h-9"/><text transform="translate(70.5 112.4)" stroke="none" fill="#000" font-family="Arial" font-size="12" text-anchor="end"><tspan>559600</tspan></text></g><g fill="none" color="#000" stroke="currentColor"><path stroke="#000" d="M78.8 66.6h9m527.2 0h-9"/><text transform="translate(70.5 70.5)" stroke="none" fill="#000" font-family="Arial" font-size="12" text-anchor="end"><tspan>559800</tspan></text></g><g fill="none" color="#000" stroke="currentColor"><path stroke="#000" d="M78.8 24.8h9m527.2 0h-9"/><text transform="translate(70.5 28.7)" stroke="none" fill="#000" font-family="Arial" font-size="12" text-anchor="end"><tspan>560000</tspan></text></g><g fill="none" color="#000" stroke="currentColor"><path stroke="#000" d="M78.8 418v-9m0-390.9v9"/><text transform="translate(78.8 439.9)" stroke="none" fill="#000" font-family="Arial" font-size="12" text-anchor="middle"><tspan>0</tspan></text></g><g fill="none" color="#000" stroke="currentColor"><path stroke="#000" d="M133 418v-9m0-390.9v9"/><text transform="translate(133 439.9)" stroke="none" fill="#000" font-family="Arial" font-size="12" text-anchor="middle"><tspan>10</tspan></text></g><g fill="none" color="#000" stroke="currentColor"><path stroke="#000" d="M187.1 418v-9m0-390.9v9"/><text transform="translate(187.1 439.9)" stroke="none" fill="#000" font-family="Arial" font-size="12" text-anchor="middle"><tspan>20</tspan></text></g><g fill="none" color="#000" stroke="currentColor"><path stroke="#000" d="M241.3 418v-9m0-390.9v9"/><text transform="translate(241.3 439.9)" stroke="none" fill="#000" font-family="Arial" font-size="12" text-anchor="middle"><tspan>30</tspan></text></g><g fill="none" color="#000" stroke="currentColor"><path stroke="#000" d="M295.4 418v-9m0-390.9v9"/><text transform="translate(295.4 439.9)" stroke="none" fill="#000" font-family="Arial" font-size="12" text-anchor="middle"><tspan>40</tspan></text></g><g fill="none" color="#000" stroke="currentColor"><path stroke="#000" d="M349.6 418v-9m0-390.9v9"/><text transform="translate(349.6 439.9)" stroke="none" fill="#000" font-family="Arial" font-size="12" text-anchor="middle"><tspan>50</tspan></text></g><g fill="none" color="#000" stroke="currentColor"><path stroke="#000" d="M403.8 418v-9m0-390.9v9"/><text transform="translate(403.8 439.9)" stroke="none" fill="#000" font-family="Arial" font-size="12" text-anchor="middle"><tspan>60</tspan></text></g><g fill="none" color="#000" stroke="currentColor"><path stroke="#000" d="M457.9 418v-9m0-390.9v9"/><text transform="translate(457.9 439.9)" stroke="none" fill="#000" font-family="Arial" font-size="12" text-anchor="middle"><tspan>70</tspan></text></g><g fill="none" color="#000" stroke="currentColor"><path stroke="#000" d="M512.1 418v-9m0-390.9v9"/><text transform="translate(512.1 439.9)" stroke="none" fill="#000" font-family="Arial" font-size="12" text-anchor="middle"><tspan>80</tspan></text></g><g fill="none" color="#000" stroke="currentColor"><path stroke="#000" d="M566.3 418v-9m0-390.9v9"/><text transform="translate(566.3 439.9)" stroke="none" fill="#000" font-family="Arial" font-size="12" text-anchor="middle"><tspan>90</tspan></text></g><path stroke="#000" d="M78.8 18.1V418H615V18.1H78.8z" fill="none" color="#000"/><text transform="translate(288.1 457.9)" stroke="none" fill="#000" font-family="Arial" font-size="12" text-anchor="end" color="#000"><tspan>raw</tspan></text><path stroke="#9400D3" d="M296.4 454h42.2M78.8 199.2l5.4-20.3 5.4-6.9 5.4-4.3 5.5-4.3 5.4-3.6 5.4-4.3 5.4-4.3 5.4-4.3 5.4-4.3 5.5-4.3 5.4-5 5.4-4.3 5.4-4.3 5.4-3.7 5.4-4.3 5.5-4.3 5.4-4.3 5.4-4.3 5.4-4.3 5.4-4.3 5.4-4.4 5.5-4.9 5.4-5 5.4-4.4 5.4-4.3 5.4-3.5 5.4-4.3 5.5-4.3 5.4-4.3 5.4-4.4 5.4-4.3 5.4-4.3 5.4-4.3 5.4-4.3 5.5-4.1 5.4-4.3 5.4 384.5 5.4-1.3 5.4-1.3 5.4-1.4 5.5-1.3 5.4-2.1 5.4-1.1 5.4-1.3 5.4-1.7 5.4-1.3 5.5-1.4 5.4-1.3 5.4-1.3 5.4-1.3 5.4-1.3 5.4-1.4 5.5-1.3 5.4-1.3 5.4-1.3 5.4-3.9 5.4-4.3 5.4-4.3 5.5-4.3 5.4-3.6 5.4-4.3 5.4-4.3 5.4-4.3 5.4-5 5.5-4.3 5.4-4.1 5.4-4.3 5.4 3.1 5.4 16.3 5.4-4.1 5.4-4.2 5.5-4.9 5.4-4.1 5.4-4.2 5.4-4.1 5.4-4.1 5.4-4.2 5.5-4.1 5.4-4.2 5.4-4.1 5.4-4.2 5.4-4.1 5.4-4.1 5.5-3.4 5.4-9.5 5.4-5.3 5.4-73.4 5.4-4.1 5.4-4.2 5.5 63.3 5.4-5 5.4-4.3 5.4-3.6 5.4-4.3 5.4-4.3 5.5-4.3 5.4-4.3 5.4-4.3 5.4-4.3" fill="none" color="#000"/><text transform="translate(288.1 475.9)" stroke="none" fill="#000" font-family="Arial" font-size="12" text-anchor="end" color="#000"><tspan>score p10=28672</tspan></text><path stroke="#009E73" d="M296.4 472h42.2" fill="none" color="#000"/><text transform="translate(504.6 457.9)" stroke="none" fill="#000" font-family="Arial" font-size="12" text-anchor="end" color="#000"><tspan>score median=131072</tspan></text><path stroke="#56B4E9" d="M512.9 454h42.2" fill="none" color="#000"/><g fill="none" color="#000" stroke="currentColor"><path stroke="#000" d="M78.8 18.1V418H615V18.1H78.8z"/></g></svg>

<?xml version="1.0" encoding="utf-8"  standalone="no"?>
<svg 
 width="640" height="490"
 viewBox="0 0 640 490"
 xmlns="http://www.w3.org/2000/svg"
 xmlns:xlink="http://www.w3.org/1999/xlink"
>

<title>Gnuplot</title>
<desc>Produced by GNUPLOT 5.4 patchlevel 0 </desc>

<g id="gnuplot_canvas">

<rect x="0" y="0" width="640" height="490" fill="#ffffff"/>
<defs>

	<circle id='gpDot' r='0.5' stroke-width='0.5' stroke='currentColor'/>
	<path id='gpPt0' stroke-width='0.222' stroke='currentColor' d='M-1,0 h2 M0,-1 v2'/>
	<path id='gpPt1' stroke-width='0.222' stroke='currentColor' d='M-1,-1 L1,1 M1,-1 L-1,1'/>
	<path id='gpPt2' stroke-width='0.222' stroke='currentColor' d='M-1,0 L1,0 M0,-1 L0,1 M-1,-1 L1,1 M-1,1 L1,-1'/>
	<rect id='gpPt3' stroke-width='0.222' stroke='currentColor' x='-1' y='-1' width='2' height='2'/>
	<rect id='gpPt4' stroke-width='0.222' stroke='currentColor' fill='currentColor' x='-1' y='-1' width='2' height='2'/>
	<circle id='gpPt5' stroke-width='0.222' stroke='currentColor' cx='0' cy='0' r='1'/>
	<use xlink:href='#gpPt5' id='gpPt6' fill='currentColor' stroke='none'/>
	<path id='gpPt7' stroke-width='0.222' stroke='currentColor' d='M0,-1.33 L-1.33,0.67 L1.33,0.67 z'/>
	<use xlink:href='#gpPt7' id='gpPt8' fill='currentColor' stroke='none'/>
	<use xlink:href='#gpPt7' id='gpPt9' stroke='currentColor' transform='rotate(180)'/>
	<use xlink:href='#gpPt9' id='gpPt10' fill='currentColor' stroke='none'/>
	<use xlink:href='#gpPt3' id='gpPt11' stroke='currentColor' transform='rotate(45)'/>
	<use xlink:href='#gpPt11' id='gpPt12' fill='currentColor' stroke='none'/>
	<path id='gpPt13' stroke-width='0.222' stroke='currentColor' d='M0,1.330 L1.265,0.411 L0.782,-1.067 L-0.782,-1.076 L-1.265,0.411 z'/>
	<use xlink:href='#gpPt13' id='gpPt14' fill='currentColor' stroke='none'/>
	<filter id='textbox' filterUnits='objectBoundingBox' x='0' y='0' height='1' width='1'>
	  <feFlood flood-color='#FFFFFF' flood-opacity='1' result='bgnd'/>
	  <feComposite in='SourceGraphic' in2='bgnd' operator='atop'/>
	</filter>
	<filter id='greybox' filterUnits='objectBoundingBox' x='0' y='0' height='1' width='1'>
	  <feFlood flood-color='lightgrey' flood-opacity='1' result='grey'/>
	  <feComposite in='SourceGraphic' in2='grey' operator='atop'/>
	</filter>
</defs>
<g fill="none" color="#FFFFFF" stroke="black" stroke-width="1.00" stroke-linecap="butt" stroke-linejoin="miter">
</g>
<g fill="none" color="black" stroke="currentColor" stroke-width="1.00" stroke-linecap="butt" stroke-linejoin="miter">
	<path stroke='black'  d='M78.8,401.5 L87.8,401.5 M615.0,401.5 L606.0,401.5  '/>	<g transform="translate(70.5,405.4)" stroke="none" fill="black" font-family="Arial" font-size="12.00"  text-anchor="end">
		<text><tspan font-family="Arial" > 558200</tspan></text>
	</g>
</g>
<g fill="none" color="black" stroke="currentColor" stroke-width="1.00" stroke-linecap="butt" stroke-linejoin="miter">
	<path stroke='black'  d='M78.8,359.6 L87.8,359.6 M615.0,359.6 L606.0,359.6  '/>	<g transform="translate(70.5,363.5)" stroke="none" fill="black" font-family="Arial" font-size="12.00"  text-anchor="end">
		<text><tspan font-family="Arial" > 558400</tspan></text>
	</g>
</g>
<g fill="none" color="black" stroke="currentColor" stroke-width="1.00" stroke-linecap="butt" stroke-linejoin="miter">
	<path stroke='black'  d='M78.8,317.8 L87.8,317.8 M615.0,317.8 L606.0,317.8  '/>	<g transform="translate(70.5,321.7)" stroke="none" fill="black" font-family="Arial" font-size="12.00"  text-anchor="end">
		<text><tspan font-family="Arial" > 558600</tspan></text>
	</g>
</g>
<g fill="none" color="black" stroke="currentColor" stroke-width="1.00" stroke-linecap="butt" stroke-linejoin="miter">
	<path stroke='black'  d='M78.8,275.9 L87.8,275.9 M615.0,275.9 L606.0,275.9  '/>	<g transform="translate(70.5,279.8)" stroke="none" fill="black" font-family="Arial" font-size="12.00"  text-anchor="end">
		<text><tspan font-family="Arial" > 558800</tspan></text>
	</g>
</g>
<g fill="none" color="black" stroke="currentColor" stroke-width="1.00" stroke-linecap="butt" stroke-linejoin="miter">
	<path stroke='black'  d='M78.8,234.1 L87.8,234.1 M615.0,234.1 L606.0,234.1  '/>	<g transform="translate(70.5,238.0)" stroke="none" fill="black" font-family="Arial" font-size="12.00"  text-anchor="end">
		<text><tspan font-family="Arial" > 559000</tspan></text>
	</g>
</g>
<g fill="none" color="black" stroke="currentColor" stroke-width="1.00" stroke-linecap="butt" stroke-linejoin="miter">
	<path stroke='black'  d='M78.8,192.2 L87.8,192.2 M615.0,192.2 L606.0,192.2  '/>	<g transform="translate(70.5,196.1)" stroke="none" fill="black" font-family="Arial" font-size="12.00"  text-anchor="end">
		<text><tspan font-family="Arial" > 559200</tspan></text>
	</g>
</g>
<g fill="none" color="black" stroke="currentColor" stroke-width="1.00" stroke-linecap="butt" stroke-linejoin="miter">
	<path stroke='black'  d='M78.8,150.3 L87.8,150.3 M615.0,150.3 L606.0,150.3  '/>	<g transform="translate(70.5,154.2)" stroke="none" fill="black" font-family="Arial" font-size="12.00"  text-anchor="end">
		<text><tspan font-family="Arial" > 559400</tspan></text>
	</g>
</g>
<g fill="none" color="black" stroke="currentColor" stroke-width="1.00" stroke-linecap="butt" stroke-linejoin="miter">
	<path stroke='black'  d='M78.8,108.5 L87.8,108.5 M615.0,108.5 L606.0,108.5  '/>	<g transform="translate(70.5,112.4)" stroke="none" fill="black" font-family="Arial" font-size="12.00"  text-anchor="end">
		<text><tspan font-family="Arial" > 559600</tspan></text>
	</g>
</g>
<g fill="none" color="black" stroke="currentColor" stroke-width="1.00" stroke-linecap="butt" stroke-linejoin="miter">
	<path stroke='black'  d='M78.8,66.6 L87.8,66.6 M615.0,66.6 L606.0,66.6  '/>	<g transform="translate(70.5,70.5)" stroke="none" fill="black" font-family="Arial" font-size="12.00"  text-anchor="end">
		<text><tspan font-family="Arial" > 559800</tspan></text>
	</g>
</g>
<g fill="none" color="black" stroke="currentColor" stroke-width="1.00" stroke-linecap="butt" stroke-linejoin="miter">
	<path stroke='black'  d='M78.8,24.8 L87.8,24.8 M615.0,24.8 L606.0,24.8  '/>	<g transform="translate(70.5,28.7)" stroke="none" fill="black" font-family="Arial" font-size="12.00"  text-anchor="end">
		<text><tspan font-family="Arial" > 560000</tspan></text>
	</g>
</g>
<g fill="none" color="black" stroke="currentColor" stroke-width="1.00" stroke-linecap="butt" stroke-linejoin="miter">
	<path stroke='black'  d='M78.8,418.0 L78.8,409.0 M78.8,18.1 L78.8,27.1  '/>	<g transform="translate(78.8,439.9)" stroke="none" fill="black" font-family="Arial" font-size="12.00"  text-anchor="middle">
		<text><tspan font-family="Arial" > 0</tspan></text>
	</g>
</g>
<g fill="none" color="black" stroke="currentColor" stroke-width="1.00" stroke-linecap="butt" stroke-linejoin="miter">
	<path stroke='black'  d='M133.0,418.0 L133.0,409.0 M133.0,18.1 L133.0,27.1  '/>	<g transform="translate(133.0,439.9)" stroke="none" fill="black" font-family="Arial" font-size="12.00"  text-anchor="middle">
		<text><tspan font-family="Arial" > 10</tspan></text>
	</g>
</g>
<g fill="none" color="black" stroke="currentColor" stroke-width="1.00" stroke-linecap="butt" stroke-linejoin="miter">
	<path stroke='black'  d='M187.1,418.0 L187.1,409.0 M187.1,18.1 L187.1,27.1  '/>	<g transform="translate(187.1,439.9)" stroke="none" fill="black" font-family="Arial" font-size="12.00"  text-anchor="middle">
		<text><tspan font-family="Arial" > 20</tspan></text>
	</g>
</g>
<g fill="none" color="black" stroke="currentColor" stroke-width="1.00" stroke-linecap="butt" stroke-linejoin="miter">
	<path stroke='black'  d='M241.3,418.0 L241.3,409.0 M241.3,18.1 L241.3,27.1  '/>	<g transform="translate(241.3,439.9)" stroke="none" fill="black" font-family="Arial" font-size="12.00"  text-anchor="middle">
		<text><tspan font-family="Arial" > 30</tspan></text>
	</g>
</g>
<g fill="none" color="black" stroke="currentColor" stroke-width="1.00" stroke-linecap="butt" stroke-linejoin="miter">
	<path stroke='black'  d='M295.4,418.0 L295.4,409.0 M295.4,18.1 L295.4,27.1  '/>	<g transform="translate(295.4,439.9)" stroke="none" fill="black" font-family="Arial" font-size="12.00"  text-anchor="middle">
		<text><tspan font-family="Arial" > 40</tspan></text>
	</g>
</g>
<g fill="none" color="black" stroke="currentColor" stroke-width="1.00" stroke-linecap="butt" stroke-linejoin="miter">
	<path stroke='black'  d='M349.6,418.0 L349.6,409.0 M349.6,18.1 L349.6,27.1  '/>	<g transform="translate(349.6,439.9)" stroke="none" fill="black" font-family="Arial" font-size="12.00"  text-anchor="middle">
		<text><tspan font-family="Arial" > 50</tspan></text>
	</g>
</g>
<g fill="none" color="black" stroke="currentColor" stroke-width="1.00" stroke-linecap="butt" stroke-linejoin="miter">
	<path stroke='black'  d='M403.8,418.0 L403.8,409.0 M403.8,18.1 L403.8,27.1  '/>	<g transform="translate(403.8,439.9)" stroke="none" fill="black" font-family="Arial" font-size="12.00"  text-anchor="middle">
		<text><tspan font-family="Arial" > 60</tspan></text>
	</g>
</g>
<g fill="none" color="black" stroke="currentColor" stroke-width="1.00" stroke-linecap="butt" stroke-linejoin="miter">
	<path stroke='black'  d='M457.9,418.0 L457.9,409.0 M457.9,18.1 L457.9,27.1  '/>	<g transform="translate(457.9,439.9)" stroke="none" fill="black" font-family="Arial" font-size="12.00"  text-anchor="middle">
		<text><tspan font-family="Arial" > 70</tspan></text>
	</g>
</g>
<g fill="none" color="black" stroke="currentColor" stroke-width="1.00" stroke-linecap="butt" stroke-linejoin="miter">
	<path stroke='black'  d='M512.1,418.0 L512.1,409.0 M512.1,18.1 L512.1,27.1  '/>	<g transform="translate(512.1,439.9)" stroke="none" fill="black" font-family="Arial" font-size="12.00"  text-anchor="middle">
		<text><tspan font-family="Arial" > 80</tspan></text>
	</g>
</g>
<g fill="none" color="black" stroke="currentColor" stroke-width="1.00" stroke-linecap="butt" stroke-linejoin="miter">
	<path stroke='black'  d='M566.3,418.0 L566.3,409.0 M566.3,18.1 L566.3,27.1  '/>	<g transform="translate(566.3,439.9)" stroke="none" fill="black" font-family="Arial" font-size="12.00"  text-anchor="middle">
		<text><tspan font-family="Arial" > 90</tspan></text>
	</g>
</g>
<g fill="none" color="black" stroke="currentColor" stroke-width="1.00" stroke-linecap="butt" stroke-linejoin="miter">
</g>
<g fill="none" color="black" stroke="currentColor" stroke-width="1.00" stroke-linecap="butt" stroke-linejoin="miter">
	<path stroke='black'  d='M78.8,18.1 L78.8,418.0 L615.0,418.0 L615.0,18.1 L78.8,18.1 Z  '/></g>
<g fill="none" color="black" stroke="currentColor" stroke-width="1.00" stroke-linecap="butt" stroke-linejoin="miter">
</g>
	<g id="gnuplot_plot_1" ><title>raw</title>
<g fill="none" color="black" stroke="currentColor" stroke-width="1.00" stroke-linecap="butt" stroke-linejoin="miter">
	<g transform="translate(288.1,457.9)" stroke="none" fill="black" font-family="Arial" font-size="12.00"  text-anchor="end">
		<text><tspan font-family="Arial" >raw</tspan></text>
	</g>
</g>
<g fill="none" color="black" stroke="currentColor" stroke-width="1.00" stroke-linecap="butt" stroke-linejoin="miter">
	<path stroke='rgb(148,   0, 211)'  d='M296.4,454.0 L338.6,454.0 M78.8,199.2 L84.2,178.9 L89.6,172.0 L95.0,167.7 L100.5,163.4 L105.9,159.8
		L111.3,155.5 L116.7,151.2 L122.1,146.9 L127.5,142.6 L133.0,138.3 L138.4,133.3 L143.8,129.0 L149.2,124.7
		L154.6,121.0 L160.0,116.7 L165.5,112.4 L170.9,108.1 L176.3,103.8 L181.7,99.5 L187.1,95.2 L192.5,90.8
		L198.0,85.9 L203.4,80.9 L208.8,76.5 L214.2,72.2 L219.6,68.7 L225.0,64.4 L230.5,60.1 L235.9,55.8
		L241.3,51.4 L246.7,47.1 L252.1,42.8 L257.5,38.5 L262.9,34.2 L268.4,30.1 L273.8,25.8 L279.2,410.3
		L284.6,409.0 L290.0,407.7 L295.4,406.3 L300.9,405.0 L306.3,402.9 L311.7,401.8 L317.1,400.5 L322.5,398.8
		L327.9,397.5 L333.4,396.1 L338.8,394.8 L344.2,393.5 L349.6,392.2 L355.0,390.9 L360.4,389.5 L365.9,388.2
		L371.3,386.9 L376.7,385.6 L382.1,381.7 L387.5,377.4 L392.9,373.1 L398.4,368.8 L403.8,365.2 L409.2,360.9
		L414.6,356.6 L420.0,352.3 L425.4,347.3 L430.9,343.0 L436.3,338.9 L441.7,334.6 L447.1,337.7 L452.5,354.0
		L457.9,349.9 L463.3,345.7 L468.8,340.8 L474.2,336.7 L479.6,332.5 L485.0,328.4 L490.4,324.3 L495.8,320.1
		L501.3,316.0 L506.7,311.8 L512.1,307.7 L517.5,303.5 L522.9,299.4 L528.3,295.3 L533.8,291.9 L539.2,282.4
		L544.6,277.1 L550.0,203.7 L555.4,199.6 L560.8,195.4 L566.3,258.7 L571.7,253.7 L577.1,249.4 L582.5,245.8
		L587.9,241.5 L593.3,237.2 L598.8,232.9 L604.2,228.6 L609.6,224.3 L615.0,220.0  '/></g>
	</g>
	<g id="gnuplot_plot_2" ><title>score p10=28672</title>
<g fill="none" color="black" stroke="currentColor" stroke-width="1.00" stroke-linecap="butt" stroke-linejoin="miter">
	<g transform="translate(288.1,475.9)" stroke="none" fill="black" font-family="Arial" font-size="12.00"  text-anchor="end">
		<text><tspan font-family="Arial" >score p10=28672</tspan></text>
	</g>
</g>
<g fill="none" color="black" stroke="currentColor" stroke-width="1.00" stroke-linecap="butt" stroke-linejoin="miter">
	<path stroke='rgb(  0, 158, 115)'  d='M296.4,472.0 L338.6,472.0  '/></g>
	</g>
	<g id="gnuplot_plot_3" ><title>score median=131072</title>
<g fill="none" color="black" stroke="currentColor" stroke-width="1.00" stroke-linecap="butt" stroke-linejoin="miter">
	<g transform="translate(504.6,457.9)" stroke="none" fill="black" font-family="Arial" font-size="12.00"  text-anchor="end">
		<text><tspan font-family="Arial" >score median=131072</tspan></text>
	</g>
</g>
<g fill="none" color="black" stroke="currentColor" stroke-width="1.00" stroke-linecap="butt" stroke-linejoin="miter">
	<path stroke='rgb( 86, 180, 233)'  d='M512.9,454.0 L555.1,454.0  '/></g>
	</g>
<g fill="none" color="#FFFFFF" stroke="rgb( 86, 180, 233)" stroke-width="2.00" stroke-linecap="butt" stroke-linejoin="miter">
</g>
<g fill="none" color="black" stroke="currentColor" stroke-width="2.00" stroke-linecap="butt" stroke-linejoin="miter">
</g>
<g fill="none" color="black" stroke="black" stroke-width="1.00" stroke-linecap="butt" stroke-linejoin="miter">
</g>
<g fill="none" color="black" stroke="currentColor" stroke-width="1.00" stroke-linecap="butt" stroke-linejoin="miter">
	<path stroke='black'  d='M78.8,18.1 L78.8,418.0 L615.0,418.0 L615.0,18.1 L78.8,18.1 Z  '/></g>
<g fill="none" color="black" stroke="currentColor" stroke-width="1.00" stroke-linecap="butt" stroke-linejoin="miter">
</g>
</g>
</svg>
